Amon/img/header/email.svg

<svg width="20" height="20" fill="none" xmlns="http://www.w3.org/2000/svg"><path d="M10 0C4.48 0 0 4.48 0 10s4.48 10 10 10h5v-2h-5c-4.34 0-8-3.66-8-8s3.66-8 8-8 8 3.66 8 8v1.43c0 .79-.71 1.57-1.5 1.57s-1.5-.78-1.5-1.57V10c0-2.76-2.24-5-5-5s-5 2.24-5 5 2.24 5 5 5c1.38 0 2.64-.56 3.54-1.47.65.89 1.77 1.47 2.96 1.47 1.97 0 3.5-1.6 3.5-3.57V10c0-5.52-4.48-10-10-10zm0 13c-1.66 0-3-1.34-3-3s1.34-3 3-3 3 1.34 3 3-1.34 3-3 3z" fill="#fff"/></svg>

<svg width="20" height="20" viewBox="0 0 20 20" fill="none" xmlns="http://www.w3.org/2000/svg">
<path d="M10 0C4.48 0 0 4.48 0 10C0 15.52 4.48 20 10 20H15V18H10C5.66 18 2 14.34 2 10C2 5.66 5.66 2 10 2C14.34 2 18 5.66 18 10V11.43C18 12.22 17.29 13 16.5 13C15.71 13 15 12.22 15 11.43V10C15 7.24 12.76 5 10 5C7.24 5 5 7.24 5 10C5 12.76 7.24 15 10 15C11.38 15 12.64 14.44 13.54 13.53C14.19 14.42 15.31 15 16.5 15C18.47 15 20 13.4 20 11.43V10C20 4.48 15.52 0 10 0ZM10 13C8.34 13 7 11.66 7 10C7 8.34 8.34 7 10 7C11.66 7 13 8.34 13 10C13 11.66 11.66 13 10 13Z" fill="white"/>
</svg>
